assets/svg/1F566.svg

<svg xmlns="http://www.w3.org/2000/svg" viewBox="0 0 64 64" enable-background="new 0 0 64 64"><circle fill="#e0e7ec" cx="32.05" cy="32.05" r="29.694"/><path fill="#d1d7da" d="m52.39 47.25c-16.4 0-29.694-13.294-29.694-29.694 0-5.454 1.495-10.545 4.06-14.937-13.806 2.551-24.269 14.631-24.269 29.17 0 16.399 13.294 29.693 29.694 29.693 10.947 0 20.484-5.939 25.634-14.754-1.761.325-3.57.517-5.425.517"/><path fill="#98a9b4" d="m0 32.05c0 17.674 14.379 32.05 32.05 32.05s32.06-14.381 32.06-32.05c0-17.675-14.38-32.05-32.06-32.05s-32.05 14.38-32.05 32.05m6.24 0c0-14.232 11.581-25.813 25.813-25.813 14.234 0 25.815 11.581 25.815 25.813 0 14.234-11.581 25.815-25.815 25.815-14.232 0-25.813-11.581-25.813-25.815"/><path fill="#85939c" d="m30.17 53.05c0 1.441.85 2.609 1.894 2.609l0 0c1.045 0 1.895-1.168 1.895-2.609v-21.12c0-1.442-.85-2.608-1.895-2.608l0 0c-1.044 0-1.894 1.167-1.894 2.608v21.12"/><path fill="#788288" d="m26.82 16.17c-.64-1.292-1.919-1.961-2.855-1.497l0 0c-.937.463-1.178 1.886-.54 3.176l6.784 13.698c.639 1.29 1.919 1.959 2.855 1.495l0 0c.936-.463 1.179-1.886.54-3.176l-6.784-13.696"/></svg>

<?xml version="1.0" encoding="UTF-8" standalone="no"?>
<!-- Generator: Adobe Illustrator 16.0.0, SVG Export Plug-In . SVG Version: 6.00 Build 0)  -->

<svg
   xmlns:dc="http://purl.org/dc/elements/1.1/"
   xmlns:cc="http://creativecommons.org/ns#"
   xmlns:rdf="http://www.w3.org/1999/02/22-rdf-syntax-ns#"
   xmlns:svg="http://www.w3.org/2000/svg"
   xmlns="http://www.w3.org/2000/svg"
   xmlns:sodipodi="http://sodipodi.sourceforge.net/DTD/sodipodi-0.dtd"
   xmlns:inkscape="http://www.inkscape.org/namespaces/inkscape"
   version="1.1"
   id="Layer_1"
   x="0px"
   y="0px"
   width="64px"
   height="64px"
   viewBox="0 0 64 64"
   enable-background="new 0 0 64 64"
   xml:space="preserve"
   inkscape:version="0.48.5 r10040"
   sodipodi:docname="1F566.svg"
   inkscape:export-filename="D:\TESTINGEMOJI\SVGTEST\1F566.png"
   inkscape:export-xdpi="90"
   inkscape:export-ydpi="90"><metadata
   id="metadata3088"><rdf:RDF><cc:Work
       rdf:about=""><dc:format>image/svg+xml</dc:format><dc:type
         rdf:resource="http://purl.org/dc/dcmitype/StillImage" /><dc:title></dc:title></cc:Work></rdf:RDF></metadata><defs
   id="defs3086" /><sodipodi:namedview
   pagecolor="#ffffff"
   bordercolor="#666666"
   borderopacity="1"
   objecttolerance="10"
   gridtolerance="10"
   guidetolerance="10"
   inkscape:pageopacity="0"
   inkscape:pageshadow="2"
   inkscape:window-width="640"
   inkscape:window-height="480"
   id="namedview3084"
   showgrid="false"
   inkscape:zoom="3.6875"
   inkscape:cx="32"
   inkscape:cy="32"
   inkscape:window-x="577"
   inkscape:window-y="243"
   inkscape:window-maximized="0"
   inkscape:current-layer="Layer_1" />
<g
   id="g3072">
	<circle
   fill="#E0E7EC"
   cx="32.055"
   cy="32.055"
   r="29.694"
   id="circle3074" />
	<path
   fill="#D1D7DA"
   d="M52.39,47.253c-16.4,0-29.694-13.294-29.694-29.694c0-5.454,1.495-10.545,4.06-14.937   C12.95,5.173,2.487,17.253,2.487,31.797c0,16.399,13.294,29.693,29.694,29.693c10.947,0,20.484-5.939,25.634-14.754   C56.054,47.061,54.245,47.253,52.39,47.253z"
   id="path3076" />
	<path
   fill="#98A9B4"
   d="M0,32.055C0,49.729,14.379,64.11,32.053,64.11s32.055-14.381,32.055-32.055C64.108,14.38,49.728,0,32.053,0   S0,14.38,0,32.055z M6.24,32.055c0-14.232,11.581-25.813,25.813-25.813c14.234,0,25.815,11.581,25.815,25.813   c0,14.234-11.581,25.815-25.815,25.815C17.821,57.87,6.24,46.289,6.24,32.055z"
   id="path3078" />
	<path
   fill="#85939C"
   d="M30.172,53.051c0,1.441,0.85,2.609,1.894,2.609l0,0c1.045,0,1.895-1.168,1.895-2.609V31.932   c0-1.442-0.85-2.608-1.895-2.608l0,0c-1.044,0-1.894,1.167-1.894,2.608V53.051z"
   id="path3080" />
	<path
   fill="#788288"
   d="M26.82,16.167c-0.64-1.292-1.919-1.961-2.855-1.497l0,0c-0.937,0.463-1.178,1.886-0.54,3.176l6.784,13.698   c0.639,1.29,1.919,1.959,2.855,1.495l0,0c0.936-0.463,1.179-1.886,0.54-3.176L26.82,16.167z"
   id="path3082" />
</g>
</svg>
